outputs/icons/audio_video/video_camera_round.svg

<svg xmlns="http://www.w3.org/2000/svg" width="1200" height="1200" fill="none"><g clip-path="url(#a)"><path fill="#000" d="M850 525V350c0-27.5-22.5-50-50-50H200c-27.5 0-50 22.5-50 50v500c0 27.5 22.5 50 50 50h600c27.5 0 50-22.5 50-50V675l114.5 114.5c31.5 31.5 85.5 9 85.5-35.5V445.5c0-44.5-54-67-85.5-35.5z"/></g><defs><clipPath id="a"><path fill="#fff" d="M0 0h1200v1200H0z"/></clipPath></defs></svg>

<svg width="1200" height="1200" viewBox="0 0 1200 1200" fill="none" xmlns="http://www.w3.org/2000/svg"><g clip-path="url(#clip0_231_5143)"><path d="M850 525V350C850 322.5 827.5 300 800 300H200C172.5 300 150 322.5 150 350V850C150 877.5 172.5 900 200 900H800C827.5 900 850 877.5 850 850V675L964.5 789.5C996 821 1050 798.5 1050 754V445.5C1050 401 996 378.5 964.5 410L850 525Z" fill="black"/></g><defs><clipPath id="clip0_231_5143"><path width="24" fill="white" d="M0 0H1200V1200H0V0z"/></clipPath></defs></svg>
